svg/u1f443_1f3fc.svg

<svg viewBox="0 0 128 128" xmlns="http://www.w3.org/2000/svg" xmlns:xlink="http://www.w3.org/1999/xlink">
  <linearGradient id="g" gradientTransform="matrix(.1599 -1.1147 1.1712 .168 1534.8 -289.87)" gradientUnits="userSpaceOnUse" x1="-529.21" x2="-529.21" y1="-1229.2" y2="-1199.8">
    <stop offset=".6" stop-color="#E0BB95"/>
    <stop offset="1" stop-color="#CCA47A"/>
  </linearGradient>
  <path d="m58.03 119.35c-1.17 0-2.43-0.08-3.76-0.25-7.17-0.91-22.12-4.14-31.66-8.93-3.63-1.82-2.91-9.74-2.48-14.47l0.05-0.56c1.13-12.65 12.95-13.59 22.45-14.35 1.93-0.16 3.76-0.3 5.3-0.55 0.84-0.13 1.67-0.2 2.47-0.2 14.24 0 19.27 21.48 19.32 21.69 0.04 0.14 2.22 8.61-1.68 13.69-2.01 2.6-5.37 3.93-10.01 3.93z" fill="url(#g)"/>
  <path d="m50.4 78.53v3c13.03 0 17.81 20.32 17.86 20.52l0.03 0.12c0.02 0.08 1.98 7.87-1.43 12.32-1.71 2.23-4.68 3.36-8.82 3.36-1.11 0-2.31-0.08-3.57-0.24-7.6-0.96-22.3-4.32-31.18-8.79-2.72-1.36-2-9.22-1.66-12.99l0.05-0.56c0.94-10.55 9.71-12.08 21.07-12.99 1.96-0.16 3.82-0.31 5.41-0.56 0.76-0.12 1.51-0.18 2.24-0.18v-3.01m0 0c-0.87 0-1.77 0.07-2.71 0.22-8.72 1.4-27.5-0.5-29 16.25-0.47 5.24-1.45 14.14 3.25 16.5 9.63 4.84 24.79 8.15 32.15 9.08 1.42 0.18 2.73 0.26 3.95 0.26 18.37 0 13.15-19.46 13.15-19.46s-5.16-22.85-20.79-22.85z" fill="#BA8F63"/>
  <defs>
    <path id="f" d="m47.69 78.75c17.75-2.84 23.5 22.64 23.5 22.64s5.93 22.1-17.1 19.19c-7.36-0.93-22.52-4.24-32.15-9.08-4.7-2.36-4.04-11.3-3.25-16.5 2.25-14.75 20.28-14.85 29-16.25z"/>
  </defs>
  <clipPath id="e">
    <use xlink:href="#f"/>
  </clipPath>
  <path clip-path="url(#e)" d="m42.44 123.33c-1.68 3.47-9.05-0.36-14.22-3.73-10.12-6.6-7.42-22.01 6.22-12.27 7 5 9.68 12.54 8 16z" fill="#997552"/>
  <linearGradient id="d" gradientTransform="matrix(-.1599 -1.1147 -1.1712 .168 -2395.6 -289.87)" gradientUnits="userSpaceOnUse" x1="-653.93" x2="-653.93" y1="-2056.6" y2="-2027.1">
    <stop offset=".6" stop-color="#E0BB95"/>
    <stop offset="1" stop-color="#CCA47A"/>
  </linearGradient>
  <path d="m69.97 119.35c-4.63 0-8-1.33-10.01-3.94-3.91-5.08-1.72-13.55-1.7-13.63 0.06-0.27 5.1-21.75 19.34-21.75 0.8 0 1.64 0.07 2.47 0.2 1.54 0.25 3.37 0.39 5.3 0.55 9.5 0.76 21.31 1.71 22.45 14.35l0.05 0.56c0.43 4.73 1.15 12.64-2.48 14.47-9.55 4.8-24.49 8.03-31.66 8.93-1.33 0.17-2.6 0.26-3.76 0.26z" fill="url(#d)"/>
  <path d="m77.6 81.53c0.72 0 1.48 0.06 2.24 0.18 1.6 0.26 3.45 0.4 5.41 0.56 11.36 0.91 20.13 2.45 21.07 12.99l0.05 0.56c0.34 3.77 1.06 11.62-1.66 12.99-8.88 4.46-23.58 7.83-31.18 8.79-1.26 0.16-2.46 0.24-3.57 0.24-4.14 0-7.1-1.12-8.81-3.34-3.45-4.48-1.46-12.27-1.44-12.34l0.03-0.12c0.01-0.05 1.23-5.34 4.22-10.61 3.73-6.57 8.32-9.9 13.64-9.9m0-3c-15.63 0-20.79 22.86-20.79 22.86s-5.22 19.46 13.15 19.46c1.21 0 2.52-0.08 3.95-0.26 7.36-0.93 22.52-4.24 32.15-9.08 4.7-2.36 3.72-11.26 3.25-16.5-1.5-16.75-20.28-14.85-29-16.25-0.94-0.16-1.84-0.23-2.71-0.23z" fill="#BA8F63"/>
  <defs>
    <path id="c" d="m80.31 78.75c-17.75-2.84-23.5 22.64-23.5 22.64s-5.93 22.1 17.1 19.19c7.36-0.93 22.52-4.24 32.15-9.08 4.7-2.36 4.04-11.3 3.25-16.5-2.25-14.75-20.28-14.85-29-16.25z"/>
  </defs>
  <clipPath id="b">
    <use xlink:href="#c"/>
  </clipPath>
  <path clip-path="url(#b)" d="m85.56 123.33c1.68 3.47 9.05-0.36 14.22-3.73 10.12-6.6 7.42-22.01-6.22-12.27-7 5-9.68 12.54-8 16z" fill="#997552"/>
  <radialGradient id="a" cx="63.833" cy="35.43" gradientTransform="matrix(1.0287e-13 1 -.5694 5.8569e-14 84.006 -28.404)" gradientUnits="userSpaceOnUse" r="86.355">
    <stop offset=".65" stop-color="#E0BB95"/>
    <stop offset=".995" stop-color="#BF9A72"/>
  </radialGradient>
  <path d="M87.39,81.88C86.72,57.21,76.64,7,76.64,7H51.25c0,0-10.08,50.21-10.75,74.88 c-0.31,11.41-0.08,22.93,2.25,28.81c1.79,4.5,4.5,8.76,9.09,10.75c3.82,1.65,7.94,2.35,12.04,2.3c3.23-0.04,6.62-0.62,9.77-1.45 c5.87-1.56,9.33-6.14,11.5-11.6C87.47,104.8,87.7,93.28,87.39,81.88z" fill="url(#a)"/>
  <path d="m74.16 10.03c1.92 9.9 9.09 47.92 10.14 69.55 0.07 1.5 1.24 2.72 2.74 2.84 11.58 0.99 18.44 3.41 19.29 12.85l0.05 0.56c0.34 3.77 1.06 11.62-1.66 12.99-7.41 3.72-18.56 6.6-26.52 8.05-0.46 0.08-0.89 0.27-1.27 0.55-1.23 0.92-2.55 1.57-4.06 1.97-3.22 0.86-6.35 1.33-9.03 1.36h-0.39c-3.79 0-7.3-0.69-10.42-2.04-0.75-0.32-1.47-0.76-2.21-1.32-0.38-0.29-0.82-0.48-1.28-0.57-7.89-1.46-18.93-4.32-26.25-8-2.72-1.36-2-9.22-1.66-12.99l0.05-0.56c0.43-4.78 2.44-7.94 6.33-9.96 3.61-1.87 8.31-2.49 12.85-2.88 1.5-0.13 2.67-1.34 2.74-2.84 1.05-21.62 8.2-59.65 10.12-69.56h20.44m2.46-3h-25.37s-9.42 47.01-10.65 72.41c-9.2 0.8-20.75 2.57-21.91 15.56-0.47 5.24-1.45 14.14 3.25 16.5 7.76 3.9 19.09 6.8 27.06 8.27 0.86 0.66 1.8 1.24 2.84 1.7 3.69 1.6 7.65 2.28 11.61 2.28h0.42c3.23-0.04 6.62-0.63 9.77-1.46 1.95-0.52 3.63-1.37 5.09-2.47 7.98-1.45 19.48-4.38 27.33-8.32 4.7-2.36 3.72-11.26 3.25-16.5-1.17-13.04-12.8-14.78-22.02-15.57-1.23-25.4-10.67-72.4-10.67-72.4z" fill="#BA8F63"/>
</svg>

<svg viewBox="0 0 128 128" xmlns="http://www.w3.org/2000/svg">
  <defs>
    <linearGradient id="g" gradientTransform="matrix(0.1599 -1.1147 1.1712 0.168 0 0)" gradientUnits="userSpaceOnUse" x1="-80.889514" x2="-80.889514" y1="20.04313" y2="49.44313">
      <stop offset=".6" stop-color="#E0BB95"/>
      <stop offset="1" stop-color="#CCA47A"/>
    </linearGradient>
    <linearGradient id="d" gradientTransform="matrix(-0.1599 -1.1147 -1.1712 0.168 0 0)" gradientUnits="userSpaceOnUse" x1="-97.072725" x2="-97.072725" y1="-87.202355" y2="-57.702355">
      <stop offset=".6" stop-color="#E0BB95"/>
      <stop offset="1" stop-color="#CCA47A"/>
    </linearGradient>
    <radialGradient id="a" cx="35.429" cy="-112.104247" gradientTransform="matrix(0 1 -0.5694 0 0 0)" gradientUnits="userSpaceOnUse" r="86.355">
      <stop offset=".65" stop-color="#E0BB95"/>
      <stop offset=".995" stop-color="#BF9A72"/>
    </radialGradient>
  </defs>
  <path d="M58.03,119.35 C56.86,119.35 55.6,119.27 54.27,119.1 C47.1,118.19 32.15,114.96 22.61,110.17 C18.98,108.35 19.7,100.43 20.13,95.7 L20.18,95.14 C21.31,82.49 33.13,81.55 42.63,80.79 C44.56,80.63 46.39,80.49 47.93,80.24 C48.77,80.11 49.6,80.04 50.4,80.04 C64.64,80.04 69.67,101.52 69.72,101.73 C69.76,101.87 71.94,110.34 68.04,115.42 C66.03,118.02 62.67,119.35 58.03,119.35 Z" fill="url(#g)"/>
  <path d="M50.4,78.53 L50.4,81.53 C63.43,81.53 68.21,101.85 68.26,102.05 L68.29,102.17 C68.31,102.25 70.27,110.04 66.86,114.49 C65.15,116.72 62.18,117.85 58.04,117.85 C56.93,117.85 55.73,117.77 54.47,117.61 C46.87,116.65 32.17,113.29 23.29,108.82 C20.57,107.46 21.29,99.6 21.63,95.83 L21.68,95.27 C22.62,84.72 31.39,83.19 42.75,82.28 C44.71,82.12 46.57,81.97 48.16,81.72 C48.92,81.6 49.67,81.54 50.4,81.54 L50.4,78.53 M50.4,78.53 C49.53,78.53 48.63,78.6 47.69,78.75 C38.97,80.15 20.19,78.25 18.69,95 C18.22,100.24 17.24,109.14 21.94,111.5 C31.57,116.34 46.73,119.65 54.09,120.58 C55.51,120.76 56.82,120.84 58.04,120.84 C76.41,120.84 71.19,101.38 71.19,101.38 C71.19,101.38 66.03,78.53 50.4,78.53 Z" fill="#BA8F63"/>
  <path d="M42.59,118.428 C35.834,116.85 28.185,114.557 22.395,111.726 C20.922,105.744 25.136,100.686 34.44,107.33 C38.967,110.564 41.688,114.86 42.59,118.428 Z" fill="#997552"/>
  <path d="M69.97,119.35 C65.34,119.35 61.97,118.02 59.96,115.41 C56.05,110.33 58.24,101.86 58.26,101.78 C58.32,101.51 63.36,80.03 77.6,80.03 C78.4,80.03 79.24,80.1 80.07,80.23 C81.61,80.48 83.44,80.62 85.37,80.78 C94.87,81.54 106.68,82.49 107.82,95.13 L107.87,95.69 C108.3,100.42 109.02,108.33 105.39,110.16 C95.84,114.96 80.9,118.19 73.73,119.09 C72.4,119.26 71.13,119.35 69.97,119.35 Z" fill="url(#d)"/>
  <path d="M77.6,81.53 C78.32,81.53 79.08,81.59 79.84,81.71 C81.44,81.97 83.29,82.11 85.25,82.27 C96.61,83.18 105.38,84.72 106.32,95.26 L106.37,95.82 C106.71,99.59 107.43,107.44 104.71,108.81 C95.83,113.27 81.13,116.64 73.53,117.6 C72.27,117.76 71.07,117.84 69.96,117.84 C65.82,117.84 62.86,116.72 61.15,114.5 C57.7,110.02 59.69,102.23 59.71,102.16 L59.74,102.04 C59.75,101.99 60.97,96.7 63.96,91.43 C67.69,84.86 72.28,81.53 77.6,81.53 M77.6,78.53 C61.97,78.53 56.81,101.39 56.81,101.39 C56.81,101.39 51.59,120.85 69.96,120.85 C71.17,120.85 72.48,120.77 73.91,120.59 C81.27,119.66 96.43,116.35 106.06,111.51 C110.76,109.15 109.78,100.25 109.31,95.01 C107.81,78.26 89.03,80.16 80.31,78.76 C79.37,78.6 78.47,78.53 77.6,78.53 Z" fill="#BA8F63"/>
  <path d="M105.605,111.726 C99.815,114.557 92.166,116.85 85.41,118.428 C86.312,114.86 89.033,110.564 93.56,107.33 C102.864,100.686 107.078,105.744 105.605,111.726 Z" fill="#997552"/>
  <path d="M87.39,81.88 C86.72,57.21 76.64,7 76.64,7 L51.25,7 C51.25,7 41.17,57.21 40.5,81.88 C40.19,93.29 40.42,104.81 42.75,110.69 C44.54,115.19 47.25,119.45 51.84,121.44 C55.66,123.09 59.78,123.79 63.88,123.74 C67.11,123.7 70.5,123.12 73.65,122.29 C79.52,120.73 82.98,116.15 85.15,110.69 C87.47,104.8 87.7,93.28 87.39,81.88 Z" fill="url(#a)"/>
  <path d="M74.16,10.03 C76.08,19.93 83.25,57.95 84.3,79.58 C84.37,81.08 85.54,82.3 87.04,82.42 C98.62,83.41 105.48,85.83 106.33,95.27 L106.38,95.83 C106.72,99.6 107.44,107.45 104.72,108.82 C97.31,112.54 86.16,115.42 78.2,116.87 C77.74,116.95 77.31,117.14 76.93,117.42 C75.7,118.34 74.38,118.99 72.87,119.39 C69.65,120.25 66.52,120.72 63.84,120.75 L63.45,120.75 C59.66,120.75 56.15,120.06 53.03,118.71 C52.28,118.39 51.56,117.95 50.82,117.39 C50.44,117.1 50,116.91 49.54,116.82 C41.65,115.36 30.61,112.5 23.29,108.82 C20.57,107.46 21.29,99.6 21.63,95.83 L21.68,95.27 C22.11,90.49 24.12,87.33 28.01,85.31 C31.62,83.44 36.32,82.82 40.86,82.43 C42.36,82.3 43.53,81.09 43.6,79.59 C44.65,57.97 51.8,19.94 53.72,10.03 L74.16,10.03 M76.62,7.03 L51.25,7.03 C51.25,7.03 41.83,54.04 40.6,79.44 C31.4,80.24 19.85,82.01 18.69,95 C18.22,100.24 17.24,109.14 21.94,111.5 C29.7,115.4 41.03,118.3 49,119.77 C49.86,120.43 50.8,121.01 51.84,121.47 C55.53,123.07 59.49,123.75 63.45,123.75 L63.87,123.75 C67.1,123.71 70.49,123.12 73.64,122.29 C75.59,121.77 77.27,120.92 78.73,119.82 C86.71,118.37 98.21,115.44 106.06,111.5 C110.76,109.14 109.78,100.24 109.31,95 C108.14,81.96 96.51,80.22 87.29,79.43 C86.06,54.03 76.62,7.03 76.62,7.03 Z" fill="#BA8F63"/>
</svg>
